assets/img/gm-circle-black.svg

<svg fill="none" height="175" viewBox="0 0 182 175" width="182" xmlns="http://www.w3.org/2000/svg"><g fill="#000"><path d="m11.6624 75.4629.4336 2.9357c.6337 4.2904 4.0027 7.6594 8.2931 8.2931l2.9358.4336-2.9358.4336c-4.2904.6337-7.6594 4.0027-8.2931 8.2931l-.4336 2.9357-.4336-2.9357c-.6337-4.2904-4.00266-7.6594-8.29304-8.2931l-2.93576-.4336 2.93576-.4336c4.29038-.6337 7.65934-4.0027 8.29304-8.2931z"/><path d="m169.741 76.8999.433 2.9358c.634 4.2904 4.003 7.6593 8.294 8.293l2.935.4337-2.935.4336c-4.291.6337-7.66 4.0026-8.294 8.293l-.433 2.936-.434-2.936c-.633-4.2904-4.002-7.6593-8.293-8.293l-2.936-.4336 2.936-.4337c4.291-.6337 7.66-4.0026 8.293-8.293z"/><g clip-rule="evenodd" fill-rule="evenodd"><path d="m80.4269.925425 7.5217-.925425 1.8935 15.3874-4.7551.585-.5372-4.3655c-.258-2.09629-.4624-3.93595-.6153-5.89163-.0499.66427-.1187 1.35289-.2175 2.15481l-.9428 8.38692-3.9769.4892-2.9911-7.90287c-.2633-.71351-.4917-1.32162-.6959-1.91078.3205 1.89116.5628 3.68225.8155 5.73535l.5372 4.3655-4.7551.5851-1.8935-15.38745 7.5217-.92541 1.9284 5.68624c.2042.58916.3867 1.18096.5935 1.79174.0309-.64005.0646-1.25847.1198-1.87951zm-18.0127 11.647275c2.1915 4.648.9815 8.1071-3.6276 10.2799l-6.5592 3.092-6.6118-14.0229 6.6183-3.11984c4.5697-2.15419 7.9887-.87715 10.1803 3.77084zm-8.7103.0619-1.8909.8913 3.1201 6.6175 1.891-.8913c1.8318-.8636 2.1231-2.0841.9808-4.5066-1.1422-2.4225-2.2691-2.9745-4.101-2.1109zm-7.5001 7.8569c3.0995 3.9062 2.4044 8.4602-1.3829 11.4647-3.8043 3.018-8.3806 2.6458-11.48-1.2604-3.086-3.8891-2.3909-8.4431 1.3964-11.4476 3.7872-3.0044 8.3806-2.6458 11.4665 1.2433zm-8.8678 2.0318c-1.433 1.1368-1.7221 2.8394-.0032 5.0057 1.7325 2.1833 3.4563 2.2889 4.8893 1.1521 1.4331-1.1368 1.7222-2.8394-.0103-5.0227-1.7189-2.1663-3.4428-2.2719-4.8758-1.1351zm-4.5811 21.5762c-2.9936 3.8233-7.5301 4.5308-11.4567 1.457-3.9095-3.0603-4.2979-7.6507-1.3177-11.4569 2.9802-3.8061 7.5301-4.5307 11.4396-1.4704 3.9266 3.0738 4.315 7.6641 1.3348 11.4703zm-9.4822-7.4227c-1.1276 1.4402-1.0109 3.1631 1.1668 4.8678 2.1948 1.7181 3.8956 1.4179 5.0232-.0222 1.1277-1.4402 1.0109-3.1632-1.1839-4.8813-2.1776-1.7046-3.8784-1.4045-5.0061.0357zm-7.9873 15.2032c-1.0327.0083-1.855.7106-2.3242 1.741-.8032 1.7637-.2005 3.33 2.2571 4.4489 2.5764 1.173 4.1465.6676 5.0308-1.2744.6498-1.4268.436-2.4811-.5114-3.3431l-1.1912 2.6158-3.0125-1.3715 3.2126-7.0547c.5118.1373 1.0055.3142 1.4811.5307 4.162 1.8949 5.6533 6.1865 3.668 10.5461-1.9582 4.3003-6.2505 6.0544-10.7891 3.9882-4.49883-2.0482-6.0533-6.2011-3.93265-10.8581 1.80485-3.9633 4.87145-5.3903 8.27715-4.7249zm143.2366 2.5633 5.924 2.2884c1.189.4699 2.399.9318 3.632 1.4545-.488-1.1884-.977-2.3768-1.445-3.5731l-1.055-2.6969 3.934-1.5395 4.841 12.3689-3.447 1.3491-6.061-2.3986c-1.161-.4575-2.358-.9476-3.58-1.4986.505 1.229 1.001 2.4377 1.486 3.6746l1.198 3.0618-3.995 1.5633-4.96-12.673zm-134.9588 67.6587-5.9788-2.14c-1.2009-.44-2.4218-.871-3.668-1.363.5181 1.176 1.0362 2.352 1.5342 3.536l1.1227 2.67-3.8944 1.637-5.14908-12.244 3.41258-1.435 6.1182 2.247c1.1724.428 2.3816.888 3.6163 1.408-.535-1.216-1.0616-2.412-1.5765-3.636l-1.2746-3.031 3.9546-1.663 5.2757 12.545zm9.2202 7.087-4.8681 3.335-4.8687 9.883-3.0038-4.382 1.0504-1.934c.6253-1.168 1.21-2.202 1.8373-3.213-1.1443.256-2.2831.482-3.5609.698l-2.1337.354-2.9669-4.329 10.8641-1.136 4.8681-3.336zm.97 18.027 1.064-1.091-5.1614-5.031 2.8425-2.916 5.1614 5.031 1.0185-1.044-5.5825-5.442 2.9489-3.024 9.1066 8.876-10.8228 11.101-9.1066-8.876 2.9489-3.025zm16.4843-1.069-.2225 6.741 2.729-.85 1.9457-3.072 4.1579 2.633-8.2958 13.098-4.1579-2.633 3.2507-5.132-7.3166 2.557-4.8018-3.04 7.9716-2.453-.0069-10.855zm15.0605 7.929 1.2521 6.281c.2099 1.043.387 1.982.5159 2.928.5457-1.747 1.1107-3.418 1.7687-5.287l.8387-2.382 4.5191 1.59-5.1478 14.624-4.8272-1.699-1.1904-6.259c-.1772-.94-.3231-2.099-.4486-3.251-.5818 1.85-1.1963 3.595-1.8977 5.588l-.8386 2.382-4.5192-1.59 5.1478-14.624zm9.365 11.239c.5299-4.958 4.2194-7.717 9.0264-7.203 4.8287.516 7.83 3.99 7.3002 8.948-.5276 4.936-4.2171 7.695-9.0241 7.182-4.807-.514-7.8301-3.99-7.3025-8.927zm7.7468 4.77c1.8188.194 3.2191-.817 3.5129-3.567.2962-2.771-.8587-4.055-2.6776-4.249-1.8189-.195-3.219.816-3.5153 3.588-.2938 2.749.8611 4.033 2.68 4.228zm15.5203-11.347.6453 4.351c.3098 2.089.5598 3.923.7612 5.875.0333-.666.0851-1.356.164-2.16l.7342-8.407 3.964-.588 3.186 7.826c.281.707.524 1.309.743 1.893-.367-1.883-.654-3.667-.958-5.713l-.645-4.351 4.739-.703 2.275 15.336-7.497 1.111-2.068-5.636c-.219-.584-.416-1.171-.638-1.777-.015.641-.034 1.26-.073 1.882l-.301 5.988-7.4962 1.112-2.2745-15.336zm22.7507 2.834c-2.307-4.592-1.184-8.08 3.37-10.368l6.48-3.255 6.96 13.854-6.538 3.284c-4.515 2.268-7.964 1.077-10.272-3.515zm8.706-.28 1.869-.938-3.285-6.538-1.868.939c-1.81.909-2.071 2.136-.868 4.529 1.202 2.394 2.343 2.917 4.152 2.008zm7.3-8.041c-3.195-3.828-2.613-8.397 1.099-11.495 3.728-3.111 8.312-2.852 11.507.976 3.181 3.812 2.599 8.382-1.113 11.479-3.711 3.097-8.312 2.852-11.493-.96zm8.814-2.25c1.405-1.172 1.652-2.881-.12-5.004-1.786-2.14-3.512-2.203-4.916-1.031-1.405 1.172-1.652 2.881.134 5.021 1.772 2.123 3.498 2.186 4.902 1.014zm4.047-21.682c2.898-3.896 7.415-4.716 11.417-1.74 3.984 2.963 4.486 7.542 1.6 11.421-2.885 3.879-7.415 4.715-11.399 1.753-4.002-2.976-4.503-7.555-1.618-11.434zm9.662 7.186c1.092-1.468.933-3.187-1.286-4.837-2.237-1.664-3.93-1.322-5.021.146-1.092 1.468-.933 3.187 1.304 4.85 2.219 1.651 3.912 1.309 5.003-.159zm7.609-15.399c1.032-.034 1.837-.756 2.28-1.798.759-1.783.117-3.334-2.367-4.391-2.605-1.109-4.162-.564-4.998 1.399-.614 1.443-.374 2.492.595 3.33l1.125-2.645 3.046 1.296-3.035 7.132c-.515-.124-1.013-.288-1.494-.493-4.208-1.79-5.806-6.043-3.93-10.451 1.85-4.348 6.097-6.209 10.686-4.257 4.548 1.936 6.206 6.048 4.202 10.757-1.705 4.007-4.735 5.51-8.156 4.93zm-17.339-73.9771 4.95-3.2138 5.113-9.7587 2.894 4.4558-1.099 1.9073c-.654 1.1517-1.264 2.1711-1.916 3.1658 1.15-.2278 2.294-.4253 3.577-.6092l2.142-.3003 2.858 4.401-10.889.8654-4.949 3.2138zm-.525-18.0478-1.09 1.0648 5.036 5.1565-2.914 2.8447-5.036-5.1564-1.044 1.0193 5.447 5.577-3.022 2.9513-8.886-9.0978 11.094-10.8314 8.885 9.0978-3.023 2.9513zm-16.504.6629.389-6.733-2.749.7814-2.021 3.0229-4.091-2.7352 8.617-12.8878 4.092 2.7351-3.377 5.0502 7.377-2.3756 4.725 3.1587-8.03 2.2539-.262 10.8518zm-14.86-8.3014-1.095-6.3102c-.184-1.0483-.337-1.9919-.442-2.9404-.589 1.7328-1.196 3.389-1.901 5.241l-.898 2.3608-4.478-1.7029 5.512-14.49045 4.784 1.819 1.033 6.28695c.154.9436.271 2.1063.367 3.2612.628-1.8346 1.286-3.5645 2.037-5.5386l.898-2.36079 4.478 1.70292-5.512 14.49047zm-9.081-11.47113c-.653 4.94343-4.41 7.61013-9.2031 6.97713-4.8145-.6357-7.7287-4.1833-7.0757-9.12677.6501-4.9218 4.4071-7.58848 9.1998-6.955544 4.793.632884 7.729 4.183334 7.079 9.105184zm-7.626-4.96047c-1.8138-.23948-3.2388.73642-3.6009 3.47795-.3649 2.76315.7577 4.07545 2.5712 4.31495 1.8137.2395 3.2387-.7364 3.6037-3.49955.362-2.74159-.761-4.05388-2.574-4.29335z"/><path d="m44.1138 73.5695c0-10.6764 8.6549-19.3313 19.3313-19.3313h55.7469c10.677 0 19.332 8.6549 19.332 19.3314v13.9484c0 6.604-5.354 11.9577-11.958 11.9577s-11.958 5.3533-11.958 11.9573v3.938c0 8.779-7.116 15.896-15.8952 15.896h-15.4138c-8.7789 0-15.8956-7.117-15.8956-15.896v-4.251c0-6.431-5.2135-11.6443-11.6448-11.6443s-11.6448-5.2136-11.6448-11.6449zm38.1222 4.5517c0 8.2142-6.0819 14.8731-13.5844 14.8731s-13.5844-6.6589-13.5844-14.8731c0-8.2143 6.0819-14.8732 13.5844-14.8732s13.5844 6.6589 13.5844 14.8732zm31.55 14.8731c7.503 0 13.585-6.6589 13.585-14.8731 0-8.2143-6.082-14.8732-13.585-14.8732-7.502 0-13.584 6.6589-13.584 14.8732 0 8.2142 6.082 14.8731 13.584 14.8731zm-35.8409 7.2607c0-1.8671 1.5134-3.3805 3.3802-3.3805h1.4801c3.7336 0 6.7603 3.0268 6.7603 6.7605v1.48c0 1.867-1.5133 3.38-3.3802 3.38h-1.48c-3.7337 0-6.7604-3.027-6.7604-6.76zm21.7711-3.4493c-3.7336 0-6.7603 3.0268-6.7603 6.7603v1.48c0 1.867 1.5133 3.38 3.3801 3.38h1.4801c3.7339 0 6.7599-3.026 6.7599-6.76v-1.48c0-1.8669-1.513-3.3803-3.38-3.3803z"/></g></g></svg>

<svg width="182" height="175" viewBox="0 0 182 175" fill="none" xmlns="http://www.w3.org/2000/svg">
<path d="M11.6624 75.4629L12.096 78.3986C12.7297 82.689 16.0987 86.058 20.3891 86.6917L23.3249 87.1253L20.3891 87.5589C16.0987 88.1926 12.7297 91.5616 12.096 95.852L11.6624 98.7877L11.2288 95.852C10.5951 91.5616 7.22614 88.1926 2.93576 87.5589L0 87.1253L2.93576 86.6917C7.22614 86.058 10.5951 82.689 11.2288 78.3986L11.6624 75.4629Z" fill="black"/>
<path d="M169.741 76.8999L170.174 79.8357C170.808 84.1261 174.177 87.495 178.468 88.1287L181.403 88.5624L178.468 88.996C174.177 89.6297 170.808 92.9986 170.174 97.289L169.741 100.225L169.307 97.289C168.674 92.9986 165.305 89.6297 161.014 88.996L158.078 88.5624L161.014 88.1287C165.305 87.495 168.674 84.1261 169.307 79.8357L169.741 76.8999Z" fill="black"/>
<path fill-rule="evenodd" clip-rule="evenodd" d="M80.4269 0.925425L87.9486 0L89.8421 15.3874L85.087 15.9724L84.5498 11.6069C84.2918 9.51061 84.0874 7.67095 83.9345 5.71527C83.8846 6.37954 83.8158 7.06816 83.717 7.87008L82.7742 16.257L78.7973 16.7462L75.8062 8.84333C75.5429 8.12982 75.3145 7.52171 75.1103 6.93255C75.4308 8.82371 75.6731 10.6148 75.9258 12.6679L76.463 17.0334L71.7079 17.6185L69.8144 2.23105L77.3361 1.30564L79.2645 6.99188C79.4687 7.58104 79.6512 8.17284 79.858 8.78362C79.8889 8.14357 79.9226 7.52515 79.9778 6.90411L80.4269 0.925425ZM62.4142 12.5727C64.6057 17.2207 63.3957 20.6798 58.7866 22.8526L52.2274 25.9446L45.6156 11.9217L52.2339 8.80186C56.8036 6.64767 60.2226 7.92471 62.4142 12.5727ZM53.7039 12.6346L51.813 13.5259L54.9331 20.1434L56.8241 19.2521C58.6559 18.3885 58.9472 17.168 57.8049 14.7455C56.6627 12.323 55.5358 11.771 53.7039 12.6346ZM46.2038 20.4915C49.3033 24.3977 48.6082 28.9517 44.8209 31.9562C41.0166 34.9742 36.4403 34.602 33.3409 30.6958C30.2549 26.8067 30.95 22.2527 34.7373 19.2482C38.5245 16.2438 43.1179 16.6024 46.2038 20.4915ZM37.336 22.5233C35.903 23.6601 35.6139 25.3627 37.3328 27.529C39.0653 29.7123 40.7891 29.8179 42.2221 28.6811C43.6552 27.5443 43.9443 25.8417 42.2118 23.6584C40.4929 21.4921 38.769 21.3865 37.336 22.5233ZM32.7549 44.0995C29.7613 47.9228 25.2248 48.6303 21.2982 45.5565C17.3887 42.4962 17.0003 37.9058 19.9805 34.0996C22.9607 30.2935 27.5106 29.5689 31.4201 32.6292C35.3467 35.703 35.7351 40.2933 32.7549 44.0995ZM23.2727 36.6768C22.1451 38.117 22.2618 39.8399 24.4395 41.5446C26.6343 43.2627 28.3351 42.9625 29.4627 41.5224C30.5904 40.0822 30.4736 38.3592 28.2788 36.6411C26.1012 34.9365 24.4004 35.2366 23.2727 36.6768ZM15.2854 51.88C14.2527 51.8883 13.4304 52.5906 12.9612 53.621C12.158 55.3847 12.7607 56.951 15.2183 58.0699C17.7947 59.2429 19.3648 58.7375 20.2491 56.7955C20.8989 55.3687 20.6851 54.3144 19.7377 53.4524L18.5465 56.0682L15.534 54.6967L18.7466 47.642C19.2584 47.7793 19.7521 47.9562 20.2277 48.1727C24.3897 50.0676 25.881 54.3592 23.8957 58.7188C21.9375 63.0191 17.6452 64.7732 13.1066 62.707C8.60777 60.6588 7.0533 56.5059 9.17395 51.8489C10.9788 47.8856 14.0454 46.4586 17.4511 47.124L15.2854 51.88ZM158.522 54.4433L164.446 56.7317C165.635 57.2016 166.845 57.6635 168.078 58.1862C167.59 56.9978 167.101 55.8094 166.633 54.6131L165.578 51.9162L169.512 50.3767L174.353 62.7456L170.906 64.0947L164.845 61.6961C163.684 61.2386 162.487 60.7485 161.265 60.1975C161.77 61.4265 162.266 62.6352 162.751 63.8721L163.949 66.9339L159.954 68.4972L154.994 55.8242L158.522 54.4433ZM23.5632 122.102L17.5844 119.962C16.3835 119.522 15.1626 119.091 13.9164 118.599C14.4345 119.775 14.9526 120.951 15.4506 122.135L16.5733 124.805L12.6789 126.442L7.52982 114.198L10.9424 112.763L17.0606 115.01C18.233 115.438 19.4422 115.898 20.6769 116.418C20.1419 115.202 19.6153 114.006 19.1004 112.782L17.8258 109.751L21.7804 108.088L27.0561 120.633L23.5632 122.102ZM32.7834 129.189L27.9153 132.524L23.0466 142.407L20.0428 138.025L21.0932 136.091C21.7185 134.923 22.3032 133.889 22.9305 132.878C21.7862 133.134 20.6474 133.36 19.3696 133.576L17.2359 133.93L14.269 129.601L25.1331 128.465L30.0012 125.129L32.7834 129.189ZM33.7534 147.216L34.8174 146.125L29.656 141.094L32.4985 138.178L37.6599 143.209L38.6784 142.165L33.0959 136.723L36.0448 133.699L45.1514 142.575L34.3286 153.676L25.222 144.8L28.1709 141.775L33.7534 147.216ZM50.2377 146.147L50.0152 152.888L52.7442 152.038L54.6899 148.966L58.8478 151.599L50.552 164.697L46.3941 162.064L49.6448 156.932L42.3282 159.489L37.5264 156.449L45.498 153.996L45.4911 143.141L50.2377 146.147ZM65.2982 154.076L66.5503 160.357C66.7602 161.4 66.9373 162.339 67.0662 163.285C67.6119 161.538 68.1769 159.867 68.8349 157.998L69.6736 155.616L74.1927 157.206L69.0449 171.83L64.2177 170.131L63.0273 163.872C62.8501 162.932 62.7042 161.773 62.5787 160.621C61.9969 162.471 61.3824 164.216 60.681 166.209L59.8424 168.591L55.3232 167.001L60.471 152.377L65.2982 154.076ZM74.6632 165.315C75.1931 160.357 78.8826 157.598 83.6896 158.112C88.5183 158.628 91.5196 162.102 90.9898 167.06C90.4622 171.996 86.7727 174.755 81.9657 174.242C77.1587 173.728 74.1356 170.252 74.6632 165.315ZM82.41 170.085C84.2288 170.279 85.6291 169.268 85.9229 166.518C86.2191 163.747 85.0642 162.463 83.2453 162.269C81.4264 162.074 80.0263 163.085 79.73 165.857C79.4362 168.606 80.5911 169.89 82.41 170.085ZM97.9303 158.738L98.5756 163.089C98.8854 165.178 99.1354 167.012 99.3368 168.964C99.3701 168.298 99.4219 167.608 99.5008 166.804L100.235 158.397L104.199 157.809L107.385 165.635C107.666 166.342 107.909 166.944 108.128 167.528C107.761 165.645 107.474 163.861 107.17 161.815L106.525 157.464L111.264 156.761L113.539 172.097L106.042 173.208L103.974 167.572C103.755 166.988 103.558 166.401 103.336 165.795C103.321 166.436 103.302 167.055 103.263 167.677L102.962 173.665L95.4658 174.777L93.1913 159.441L97.9303 158.738ZM120.681 161.572C118.374 156.98 119.497 153.492 124.051 151.204L130.531 147.949L137.491 161.803L130.953 165.087C126.438 167.355 122.989 166.164 120.681 161.572ZM129.387 161.292L131.256 160.354L127.971 153.816L126.103 154.755C124.293 155.664 124.032 156.891 125.235 159.284C126.437 161.678 127.578 162.201 129.387 161.292ZM136.687 153.251C133.492 149.423 134.074 144.854 137.786 141.756C141.514 138.645 146.098 138.904 149.293 142.732C152.474 146.544 151.892 151.114 148.18 154.211C144.469 157.308 139.868 157.063 136.687 153.251ZM145.501 151.001C146.906 149.829 147.153 148.12 145.381 145.997C143.595 143.857 141.869 143.794 140.465 144.966C139.06 146.138 138.813 147.847 140.599 149.987C142.371 152.11 144.097 152.173 145.501 151.001ZM149.548 129.319C152.446 125.423 156.963 124.603 160.965 127.579C164.949 130.542 165.451 135.121 162.565 139C159.68 142.879 155.15 143.715 151.166 140.753C147.164 137.777 146.663 133.198 149.548 129.319ZM159.21 136.505C160.302 135.037 160.143 133.318 157.924 131.668C155.687 130.004 153.994 130.346 152.903 131.814C151.811 133.282 151.97 135.001 154.207 136.664C156.426 138.315 158.119 137.973 159.21 136.505ZM166.819 121.106C167.851 121.072 168.656 120.35 169.099 119.308C169.858 117.525 169.216 115.974 166.732 114.917C164.127 113.808 162.57 114.353 161.734 116.316C161.12 117.759 161.36 118.808 162.329 119.646L163.454 117.001L166.5 118.297L163.465 125.429C162.95 125.305 162.452 125.141 161.971 124.936C157.763 123.146 156.165 118.893 158.041 114.485C159.891 110.137 164.138 108.276 168.727 110.228C173.275 112.164 174.933 116.276 172.929 120.985C171.224 124.992 168.194 126.495 164.773 125.915L166.819 121.106ZM149.48 47.1289L154.43 43.9151L159.543 34.1564L162.437 38.6122L161.338 40.5195C160.684 41.6712 160.074 42.6906 159.422 43.6853C160.572 43.4575 161.716 43.26 162.999 43.0761L165.141 42.7758L167.999 47.1768L157.11 48.0422L152.161 51.256L149.48 47.1289ZM148.955 29.0811L147.865 30.1459L152.901 35.3024L149.987 38.1471L144.951 32.9907L143.907 34.01L149.354 39.587L146.332 42.5383L137.446 33.4405L148.54 22.6091L157.425 31.7069L154.402 34.6582L148.955 29.0811ZM132.451 29.744L132.84 23.011L130.091 23.7924L128.07 26.8153L123.979 24.0801L132.596 11.1923L136.688 13.9274L133.311 18.9776L140.688 16.602L145.413 19.7607L137.383 22.0146L137.121 32.8664L132.451 29.744ZM117.591 21.4426L116.496 15.1324C116.312 14.0841 116.159 13.1405 116.054 12.192C115.465 13.9248 114.858 15.581 114.153 17.433L113.255 19.7938L108.777 18.0909L114.289 3.60045L119.073 5.41945L120.106 11.7064C120.26 12.65 120.377 13.8127 120.473 14.9676C121.101 13.133 121.759 11.4031 122.51 9.429L123.408 7.06821L127.886 8.77113L122.374 23.2616L117.591 21.4426ZM108.51 9.97147C107.857 14.9149 104.1 17.5816 99.3069 16.9486C94.4924 16.3129 91.5782 12.7653 92.2312 7.82183C92.8813 2.90003 96.6383 0.23335 101.431 0.866286C106.224 1.49917 109.16 5.04962 108.51 9.97147ZM100.884 5.011C99.0702 4.77152 97.6452 5.74742 97.2831 8.48895C96.9182 11.2521 98.0408 12.5644 99.8543 12.8039C101.668 13.0434 103.093 12.0675 103.458 9.30435C103.82 6.56276 102.697 5.25047 100.884 5.011Z" fill="black"/>
<path fill-rule="evenodd" clip-rule="evenodd" d="M44.1138 73.5695C44.1138 62.8931 52.7687 54.2382 63.4451 54.2382H119.192C129.869 54.2382 138.524 62.8931 138.524 73.5696V87.518C138.524 94.122 133.17 99.4757 126.566 99.4757C119.962 99.4757 114.608 104.829 114.608 111.433V115.371C114.608 124.15 107.492 131.267 98.7128 131.267H83.299C74.5201 131.267 67.4034 124.15 67.4034 115.371V111.12C67.4034 104.689 62.1899 99.4757 55.7586 99.4757C49.3273 99.4757 44.1138 94.2621 44.1138 87.8308V73.5695ZM82.236 78.1212C82.236 86.3354 76.1541 92.9943 68.6516 92.9943C61.1491 92.9943 55.0672 86.3354 55.0672 78.1212C55.0672 69.9069 61.1491 63.248 68.6516 63.248C76.1541 63.248 82.236 69.9069 82.236 78.1212ZM113.786 92.9943C121.289 92.9943 127.371 86.3354 127.371 78.1212C127.371 69.9069 121.289 63.248 113.786 63.248C106.284 63.248 100.202 69.9069 100.202 78.1212C100.202 86.3354 106.284 92.9943 113.786 92.9943ZM77.9451 100.255C77.9451 98.3879 79.4585 96.8745 81.3253 96.8745H82.8054C86.539 96.8745 89.5657 99.9013 89.5657 103.635V105.115C89.5657 106.982 88.0524 108.495 86.1855 108.495H84.7055C80.9718 108.495 77.9451 105.468 77.9451 101.735V100.255ZM99.7162 96.8057C95.9826 96.8057 92.9559 99.8325 92.9559 103.566V105.046C92.9559 106.913 94.4692 108.426 96.336 108.426H97.8161C101.55 108.426 104.576 105.4 104.576 101.666V100.186C104.576 98.3191 103.063 96.8057 101.196 96.8057H99.7162Z" fill="black"/>
</svg>
